packages/kaspersky-hexa-ui-icons/src/iconsSVGs/16/Stop.svg

<svg width="16" height="16" viewBox="0 0 16 16" fill="none" xmlns="http://www.w3.org/2000/svg">
<path fill-rule="evenodd" clip-rule="evenodd" d="M1.8501 4.5001C1.8501 3.03654 3.03654 1.8501 4.5001 1.8501H11.5001C12.9637 1.8501 14.1501 3.03654 14.1501 4.5001V11.5001C14.1501 12.9637 12.9637 14.1501 11.5001 14.1501H4.5001C3.03654 14.1501 1.8501 12.9637 1.8501 11.5001V4.5001ZM4.5001 3.1501C3.75451 3.1501 3.1501 3.75451 3.1501 4.5001V11.5001C3.1501 12.2457 3.75451 12.8501 4.5001 12.8501H11.5001C12.2457 12.8501 12.8501 12.2457 12.8501 11.5001V4.5001C12.8501 3.75451 12.2457 3.1501 11.5001 3.1501H4.5001Z" fill="black"/>
</svg>

<svg xmlns="http://www.w3.org/2000/svg" width="16" height="16" fill="none" viewBox="0 0 16 16"><path fill="#000" fill-rule="evenodd" d="M1.85 4.5c0-1.4636 1.1864-2.65 2.65-2.65h7c1.4635 0 2.65 1.1864 2.65 2.65v7c0 1.4635-1.1865 2.65-2.65 2.65h-7c-1.4636 0-2.65-1.1865-2.65-2.65zM4.5 3.15c-.7456 0-1.35.6044-1.35 1.35v7c0 .7456.6044 1.35 1.35 1.35h7c.7456 0 1.35-.6044 1.35-1.35v-7c0-.7456-.6044-1.35-1.35-1.35z"/></svg>
